media/images/database.svg

<svg xmlns="http://www.w3.org/2000/svg" xmlns:xlink="http://www.w3.org/1999/xlink" fill="none" version="1.1" width="48" height="48" viewBox="0 0 48 48"><defs><clipPath id="master_svg0_1_0591"><rect x="15.25" y="14" width="17.5" height="20" rx="0"/></clipPath></defs><g><rect x="0" y="0" width="48" height="48" rx="6" fill="#051527" fill-opacity="1" style="mix-blend-mode:passthrough"/><g><rect x="15.25" y="10" width="17.5" height="28" rx="0" fill="#000000" fill-opacity="0" style="mix-blend-mode:passthrough"/><g clip-path="url(#master_svg0_1_0591)"><g transform="matrix(1,0,0,-1,0,68.859375)"><g><path d="M32.75,51.3046875L32.75,49.4296875L32.75,51.3046875L32.75,49.4296875Q32.6719,48.1015875,30.1719,47.2030875Q27.710900000000002,46.3437875,24,46.3046875Q20.28906,46.3437875,17.82812,47.2030875Q15.328125,48.1015875,15.25,49.4296875L15.25,51.3046875Q15.328125,52.6327875,17.82812,53.531287500000005Q20.28906,54.390587499999995,24,54.4296875Q27.710900000000002,54.390587499999995,30.1719,53.531287500000005Q32.6719,52.6327875,32.75,51.3046875ZM30.601599999999998,46.0312875Q31.8516,46.4608875,32.75,47.1640875L32.75,43.1796875Q32.6719,41.8515675,30.1719,40.9531275Q27.710900000000002,40.0937475,24,40.0546875Q20.28906,40.0937475,17.82812,40.9531275Q15.328125,41.8515675,15.25,43.1796875L15.25,47.1640875Q16.148438,46.4608875,17.39844,46.0312875Q20.13281,45.0937875,24,45.0546875Q27.8672,45.0937875,30.601599999999998,46.0312875ZM15.25,40.9140675Q16.148438,40.2109375,17.39844,39.7812475Q20.13281,38.8437475,24,38.8046875Q27.8672,38.8437475,30.601599999999998,39.7812475Q31.8516,40.2109375,32.75,40.9140675L32.75,37.5546875Q32.6719,36.2265675,30.1719,35.3281255Q27.710900000000002,34.46875,24,34.4296875Q20.28906,34.46875,17.82812,35.3281255Q15.328125,36.2265675,15.25,37.5546875L15.25,40.9140675Z" fill="#FFFFFF" fill-opacity="1" style="mix-blend-mode:passthrough"/></g></g></g></g></g></svg>

<svg xmlns="http://www.w3.org/2000/svg" width="48" height="48" fill="none"><defs><clipPath id="a"><rect width="17.5" height="20" x="15.25" y="14" rx="0"/></clipPath></defs><rect width="48" height="48" fill="#051527" rx="6" style="mix-blend-mode:passthrough"/><rect width="17.5" height="28" x="15.25" y="10" fill="none" rx="0" style="mix-blend-mode:passthrough"/><g clip-path="url(#a)"><path fill="#FFF" d="M32.75 51.305V49.43zV49.43q-.078-1.328-2.578-2.227-2.461-.86-6.172-.898-3.71.039-6.172.898-2.5.899-2.578 2.227v1.875q.078 1.328 2.578 2.226 2.461.86 6.172.899 3.71-.04 6.172-.899 2.5-.898 2.578-2.226m-2.148-5.274q1.25.43 2.148 1.133V43.18q-.078-1.328-2.578-2.227-2.461-.86-6.172-.898-3.71.039-6.172.898-2.5.899-2.578 2.227v3.984q.898-.703 2.148-1.133 2.735-.937 6.602-.976 3.867.039 6.602.976M15.25 40.914q.898-.703 2.148-1.133 2.735-.937 6.602-.976 3.867.039 6.602.976 1.25.43 2.148 1.133v-3.36q-.078-1.327-2.578-2.226-2.461-.86-6.172-.898-3.71.039-6.172.898-2.5.899-2.578 2.227z" style="mix-blend-mode:passthrough" transform="matrix(1 0 0 -1 0 68.86)"/></g></svg>
